X: 37
M: none
L: 1/8
K: D
d2fd A2dA | GABG E2FG | A2A2 ABcd | f2e2 e2A2 |\
d2fd A2dA | GABG E2FG | A2A2 ABAG | F2D2 D2 :| fg |
a2af d2dA | BABd A2F2 | G2B2 ABcd | f2e2 e2fg |\
a2af d2dA | BABd A2F2 | G2B2 ABAG | F2D2 D2fg |
a2af d2dA | BABd A2F2 | G2B2 ABcd | f2e2 e2A2 |\
d2fd A2dA | GABG E2FG | A2A2 ABAG | F2D2 D4 |]
a schoolmaister friend o' mine.  It happened it dat moarnin
a walk an da t\"un cam in me head.  Da place I wis walkin ower
better.


